X: 324
T: Walk Home, The
R: jig
C: Dan Compton
Q: 160
M: 6/8
Q: 150
K: D
G,|:"D" A,2D DEF | "Em7"E2D DEF | "G"G2B "D"FGF | "Em7"EDB, "(A)"B,CD |"D"A,2D DEF | "Em7"E2D DEF |
 "G"GFE "D"FDB, |1 "A"A,3 A,2B, :|2 "A"A,3 DFG|: "D"A3 AFE | "D/F#"D3 DEF | "G"GAB "D/F#"AFD |
 "Em"FEE "A"EFG |"D(Bm)"A3 AFE | "D/F#(D/A)"D3 DEF | "Em/G"GFE "D"FDB, |1 "A"A,3 A,FG :|2 "A"A,3 A,2 |

%%newpage
%%textfont * 14
%%begintext justify
%%32 Bar Jigs
%%endtext
